images/about-s-icon.svg

<svg width="24" height="24" viewBox="0 0 24 24" fill="none" xmlns="http://www.w3.org/2000/svg">
    <path d="M4 19.3333H6V3.33333H5.33334C5.15652 3.33333 4.98696 3.2631 4.86193 3.13807C4.73691 3.01305 4.66667 2.84348 4.66667 2.66667C4.66667 2.48986 4.73691 2.32029 4.86193 2.19526C4.98696 2.07024 5.15652 2 5.33334 2H20C20.1768 2 20.3464 2.07024 20.4714 2.19526C20.5964 2.32029 20.6667 2.48986 20.6667 2.66667C20.6667 2.84348 20.5964 3.01305 20.4714 3.13807C20.3464 3.2631 20.1768 3.33333 20 3.33333H19.3333V19.3333H21.3333C21.5101 19.3333 21.6797 19.4036 21.8047 19.5286C21.9298 19.6536 22 19.8232 22 20C22 20.1768 21.9298 20.3464 21.8047 20.4714C21.6797 20.5964 21.5101 20.6667 21.3333 20.6667H4C3.82319 20.6667 3.65362 20.5964 3.5286 20.4714C3.40357 20.3464 3.33334 20.1768 3.33334 20C3.33334 19.8232 3.40357 19.6536 3.5286 19.5286C3.65362 19.4036 3.82319 19.3333 4 19.3333ZM16 5.33333H14C13.8232 5.33333 13.6536 5.40357 13.5286 5.52859C13.4036 5.65362 13.3333 5.82319 13.3333 6C13.3333 6.17681 13.4036 6.34638 13.5286 6.4714C13.6536 6.59643 13.8232 6.66667 14 6.66667H16C16.1768 6.66667 16.3464 6.59643 16.4714 6.4714C16.5964 6.34638 16.6667 6.17681 16.6667 6C16.6667 5.82319 16.5964 5.65362 16.4714 5.52859C16.3464 5.40357 16.1768 5.33333 16 5.33333ZM16 8.66667H14C13.8232 8.66667 13.6536 8.7369 13.5286 8.86193C13.4036 8.98695 13.3333 9.15652 13.3333 9.33333C13.3333 9.51014 13.4036 9.67971 13.5286 9.80474C13.6536 9.92976 13.8232 10 14 10H16C16.1768 10 16.3464 9.92976 16.4714 9.80474C16.5964 9.67971 16.6667 9.51014 16.6667 9.33333C16.6667 9.15652 16.5964 8.98695 16.4714 8.86193C16.3464 8.7369 16.1768 8.66667 16 8.66667ZM16.6667 12.6667C16.6667 12.4899 16.5964 12.3203 16.4714 12.1953C16.3464 12.0702 16.1768 12 16 12H14C13.8232 12 13.6536 12.0702 13.5286 12.1953C13.4036 12.3203 13.3333 12.4899 13.3333 12.6667C13.3333 12.8435 13.4036 13.013 13.5286 13.1381C13.6536 13.2631 13.8232 13.3333 14 13.3333H16C16.1768 13.3333 16.3464 13.2631 16.4714 13.1381C16.5964 13.013 16.6667 12.8435 16.6667 12.6667ZM10.6667 19.3333H14.6667V16H10.6667V19.3333ZM9.33333 13.3333H11.3333C11.5101 13.3333 11.6797 13.2631 11.8047 13.1381C11.9298 13.013 12 12.8435 12 12.6667C12 12.4899 11.9298 12.3203 11.8047 12.1953C11.6797 12.0702 11.5101 12 11.3333 12H9.33333C9.15652 12 8.98695 12.0702 8.86193 12.1953C8.73691 12.3203 8.66667 12.4899 8.66667 12.6667C8.66667 12.8435 8.73691 13.013 8.86193 13.1381C8.98695 13.2631 9.15652 13.3333 9.33333 13.3333ZM9.33333 10H11.3333C11.5101 10 11.6797 9.92976 11.8047 9.80474C11.9298 9.67971 12 9.51014 12 9.33333C12 9.15652 11.9298 8.98695 11.8047 8.86193C11.6797 8.7369 11.5101 8.66667 11.3333 8.66667H9.33333C9.15652 8.66667 8.98695 8.7369 8.86193 8.86193C8.73691 8.98695 8.66667 9.15652 8.66667 9.33333C8.66667 9.51014 8.73691 9.67971 8.86193 9.80474C8.98695 9.92976 9.15652 10 9.33333 10ZM9.33333 6.66667H11.3333C11.5101 6.66667 11.6797 6.59643 11.8047 6.4714C11.9298 6.34638 12 6.17681 12 6C12 5.82319 11.9298 5.65362 11.8047 5.52859C11.6797 5.40357 11.5101 5.33333 11.3333 5.33333H9.33333C9.15652 5.33333 8.98695 5.40357 8.86193 5.52859C8.73691 5.65362 8.66667 5.82319 8.66667 6C8.66667 6.17681 8.73691 6.34638 8.86193 6.4714C8.98695 6.59643 9.15652 6.66667 9.33333 6.66667Z" fill="#D4E5FB"/>
    <path d="M3.26078 12.1066C3.26078 12.9393 3.5916 13.738 4.18047 14.3269C4.60769 14.7541 5.14534 15.0455 5.72634 15.1733C4.6757 15.3196 3.69424 15.8048 2.93596 16.5631C2.01703 17.482 1.50078 18.7283 1.50078 20.0279C1.50078 20.2772 1.59982 20.5163 1.7761 20.6926C1.95238 20.8688 2.19147 20.9679 2.44078 20.9679H10.3608C10.4845 20.9679 10.6069 20.9435 10.7212 20.8961L3.26078 12.1066ZM3.26078 12.1066C3.26078 11.2738 3.5916 10.4751 4.18047 9.88624C4.76933 9.29737 5.568 8.96655 6.40078 8.96655C7.23356 8.96655 8.03223 9.29737 8.62109 9.88624C9.20996 10.4751 9.54078 11.2738 9.54078 12.1066C9.54078 12.9393 9.20996 13.738 8.62109 14.3269C8.19394 14.754 7.6564 15.0454 7.07552 15.1732M3.26078 12.1066L7.07552 15.1732M7.07552 15.1732C8.1258 15.3192 9.10721 15.8033 9.8656 16.5617C10.7844 17.4805 11.3006 18.7266 11.3008 20.0259M7.07552 15.1732L10.7212 20.8961C10.8354 20.8486 10.9391 20.7791 11.0265 20.6916C11.1138 20.604 11.183 20.5 11.23 20.3856C11.277 20.2715 11.301 20.1493 11.3008 20.0259M11.3008 20.0259C11.3008 20.0256 11.3008 20.0253 11.3008 20.025L10.8008 20.0265H11.3008C11.3008 20.0263 11.3008 20.0261 11.3008 20.0259Z" fill="#2A7DEC" stroke="white"/>
</svg>

<svg width="24" height="24" fill="none" xmlns="http://www.w3.org/2000/svg"><path d="M4 19.333h2v-16h-.667a.667.667 0 1 1 0-1.333H20a.667.667 0 1 1 0 1.333h-.667v16h2a.667.667 0 0 1 0 1.334H4a.667.667 0 0 1 0-1.334Zm12-14h-2a.667.667 0 1 0 0 1.334h2a.667.667 0 1 0 0-1.334Zm0 3.334h-2A.667.667 0 1 0 14 10h2a.667.667 0 1 0 0-1.333Zm.667 4A.667.667 0 0 0 16 12h-2a.666.666 0 1 0 0 1.333h2a.667.667 0 0 0 .667-.666Zm-6 6.666h4V16h-4v3.333Zm-1.334-6h2a.667.667 0 1 0 0-1.333h-2a.666.666 0 1 0 0 1.333Zm0-3.333h2a.667.667 0 1 0 0-1.333h-2a.667.667 0 1 0 0 1.333Zm0-3.333h2a.667.667 0 1 0 0-1.334h-2a.667.667 0 0 0 0 1.334Z" fill="#D4E5FB"/><path d="M3.26 12.107a3.14 3.14 0 0 0 2.466 3.066 4.904 4.904 0 0 0-4.225 4.855.94.94 0 0 0 .94.94h7.92a.94.94 0 0 0 .36-.072l-7.46-8.79Zm0 0a3.14 3.14 0 1 1 3.816 3.066M3.26 12.107l3.815 3.066m0 0a4.9 4.9 0 0 1 4.225 4.853m-4.225-4.853 3.645 5.723a.944.944 0 0 0 .58-.87m0 0v-.001l-.5.002h.5v-.001Z" fill="#2A7DEC" stroke="#fff"/></svg>
